; generated by Slic3r 1.3.0 on 2022-07-12 at 11:02:33

; external perimeters extrusion width = 0.55mm (1.86mm^3/s)
; perimeters extrusion width = 0.58mm (3.93mm^3/s)
; infill extrusion width = 0.58mm (3.93mm^3/s)
; solid infill extrusion width = 0.58mm (3.93mm^3/s)
; top infill extrusion width = 0.58mm (2.95mm^3/s)
; support material extrusion width = 0.55mm (3.71mm^3/s)

M107
M190 S95 ; set bed temperature and wait for it to be reached
M104 S250 ; set temperature
G28 ; home all axes
G1 Z5 F5000 ; lift nozzle

; Filament gcode

M109 S250 ; set temperature and wait for it to be reached
G21 ; set units to millimeters
G90 ; use absolute coordinates
M82 ; use absolute distances for extrusion
G92 E0
G1 Z0.500 F2400.000
G1 E-2.00000 F2400.00000
G92 E0
G1 X49.596 Y46.601 F2400.000
G1 E2.00000 F2400.00000
G1 F1200
G1 X51.361 Y45.060 E2.43470
G1 X52.914 Y44.113 E2.77229
G1 X55.090 Y43.253 E3.20646
G1 X56.500 Y43.107 E3.46949
G1 X143.500 Y43.107 E19.61413
G1 X145.806 Y43.504 E20.04830
G1 X147.846 Y44.650 E20.48248
G1 X149.385 Y46.412 E20.91666
G1 X150.012 Y47.741 E21.18931
G1 X151.147 Y51.012 E21.83187
G1 X151.528 Y53.271 E22.25703
G1 X151.528 Y200.729 E49.62077
G1 X151.147 Y202.988 E50.04592
G1 X150.012 Y206.259 E50.68849
G1 X148.881 Y208.307 E51.12266
G1 X147.130 Y209.859 E51.55684
G1 X144.961 Y210.736 E51.99102
G1 X143.500 Y210.893 E52.26367
G1 X56.500 Y210.893 E68.40831
G1 X54.194 Y210.496 E68.84249
G1 X52.914 Y209.887 E69.10551
G1 X51.361 Y208.940 E69.44310
G1 X49.598 Y207.402 E69.87728
G1 X48.452 Y205.362 E70.31145
G1 X48.054 Y203.054 E70.74615
G1 X48.054 Y50.946 E98.97279
G1 X48.451 Y48.641 E99.40697
G1 X49.560 Y46.666 E99.82723
G1 E97.82723 F2400.00000
G92 E0
G1 X140.107 Y63.393 F2400.000
G1 E2.00000 F2400.00000
G1 F1200
G1 X142.107 Y63.393 E2.37114
G1 X142.107 Y190.607 E25.97843
G1 X140.107 Y190.607 E26.34957
G1 X140.107 Y202.607 E28.57642
G1 X59.893 Y202.607 E43.46189
G1 X59.893 Y190.607 E45.68873
G1 X57.893 Y190.607 E46.05987
G1 X57.893 Y63.393 E69.66716
G1 X59.893 Y63.393 E70.03830
G1 X59.893 Y51.393 E72.26515
G1 X140.107 Y51.393 E87.15062
G1 X140.107 Y63.318 E89.36355
G1 X141.000 Y62.500 F2400.000
G1 F1200
G1 X143.000 Y62.500 E89.73469
G1 X143.000 Y191.500 E113.67329
G1 X141.000 Y191.500 E114.04443
G1 X141.000 Y202.500 E116.08571
G1 X143.000 Y202.500 E116.45685
G1 X143.000 Y203.500 E116.64242
G1 X57.000 Y203.500 E132.60149
G1 X57.000 Y202.500 E132.78706
G1 X59.000 Y202.500 E133.15820
G1 X59.000 Y191.500 E135.19948
G1 X57.000 Y191.500 E135.57062
G1 X57.000 Y62.500 E159.50923
G1 X59.000 Y62.500 E159.88037
G1 X59.000 Y51.500 E161.92164
G1 X57.000 Y51.500 E162.29278
G1 X57.000 Y50.500 E162.47835
G1 X143.000 Y50.500 E178.43742
G1 X143.000 Y51.500 E178.62299
G1 X141.000 Y51.500 E178.99414
G1 X141.000 Y62.425 E181.02149
G1 X140.970 Y62.999 F2400.000
G1 E179.02149 F2400.00000
G92 E0
G1 X61.133 Y51.938 F2400.000
G1 E2.00000 F2400.00000
G1 F1200
G1 X60.438 Y52.633 E2.18280
G1 X60.438 Y53.899 E2.41834
G1 X62.399 Y51.938 E2.93425
G1 X63.665 Y51.938 E3.16979
G1 X60.438 Y55.165 E4.01881
G1 X60.438 Y56.430 E4.25435
G1 X64.930 Y51.938 E5.43648
G1 X66.196 Y51.938 E5.67202
G1 X60.438 Y57.696 E7.18726
G1 X60.438 Y58.962 E7.42280
G1 X67.462 Y51.938 E9.27115
G1 X68.728 Y51.938 E9.50669
G1 X60.438 Y60.228 E11.68815
G1 X60.438 Y61.494 E11.92369
G1 X69.994 Y51.938 E14.43826
G1 X71.260 Y51.938 E14.67381
G1 X60.438 Y62.760 E17.52148
G1 X60.438 Y64.026 E17.75703
G1 X72.526 Y51.938 E20.93781
G1 X73.792 Y51.938 E21.17336
G1 X58.438 Y67.292 E25.21355
G1 X58.438 Y68.558 E25.44909
G1 X75.058 Y51.938 E29.82239
G1 X76.323 Y51.938 E30.05793
G1 X58.438 Y69.823 E34.76434
G1 X58.438 Y71.089 E34.99989
G1 X77.589 Y51.938 E40.03941
G1 X78.855 Y51.938 E40.27495
G1 X58.438 Y72.355 E45.64758
G1 X58.438 Y73.621 E45.88312
G1 X80.121 Y51.938 E51.58886
G1 X81.387 Y51.938 E51.82441
G1 X58.438 Y74.887 E57.86325
G1 X58.438 Y76.153 E58.09880
G1 X82.653 Y51.938 E64.47076
G1 X83.919 Y51.938 E64.70630
G1 X58.438 Y77.419 E71.41137
G1 X58.438 Y78.685 E71.64692
G1 X85.185 Y51.938 E78.68509
G1 X86.450 Y51.938 E78.92064
G1 X58.438 Y79.950 E86.29193
G1 X58.438 Y81.216 E86.52747
G1 X87.716 Y51.938 E94.23187
G1 X88.982 Y51.938 E94.46742
G1 X58.438 Y82.482 E102.50493
G1 X58.438 Y83.748 E102.74047
G1 X90.248 Y51.938 E111.11109
G1 X91.514 Y51.938 E111.34664
G1 X58.438 Y85.014 E120.05036
G1 X58.438 Y86.280 E120.28591
G1 X92.780 Y51.938 E129.32275
G1 X94.046 Y51.938 E129.55829
G1 X58.438 Y87.546 E138.92824
G1 X58.438 Y88.812 E139.16379
G1 X95.312 Y51.938 E148.86685
G1 X96.577 Y51.938 E149.10239
G1 X58.438 Y90.077 E159.13856
G1 X58.438 Y91.343 E159.37411
G1 X97.843 Y51.938 E169.74339
G1 X99.109 Y51.938 E169.97893
G1 X58.438 Y92.609 E180.68132
G1 X58.438 Y93.875 E180.91687
G1 X100.375 Y51.938 E191.95237
G1 X101.641 Y51.938 E192.18791
G1 X58.438 Y95.141 E203.55652
G1 X58.438 Y96.407 E203.79207
G1 X102.907 Y51.938 E215.49379
G1 X104.173 Y51.938 E215.72933
G1 X58.438 Y97.673 E227.76416
G1 X58.438 Y98.939 E227.99971
G1 X105.439 Y51.938 E240.36765
G1 X106.704 Y51.938 E240.60319
G1 X58.438 Y100.204 E253.30424
G1 X58.438 Y101.470 E253.53979
G1 X107.970 Y51.938 E266.57395
G1 X109.236 Y51.938 E266.80949
G1 X58.438 Y102.736 E280.17677
G1 X58.438 Y104.002 E280.41231
G1 X110.502 Y51.938 E294.11269
G1 X111.768 Y51.938 E294.34824
G1 X58.438 Y105.268 E308.38173
G1 X58.438 Y106.534 E308.61727
G1 X113.034 Y51.938 E322.98387
G1 X114.300 Y51.938 E323.21942
G1 X58.438 Y107.800 E337.91913
G1 X58.438 Y109.066 E338.15467
G1 X115.566 Y51.938 E353.18750
G1 X116.832 Y51.938 E353.42304
G1 X58.438 Y110.331 E368.78897
G1 X58.438 Y111.597 E369.02452
G1 X118.097 Y51.938 E384.72356
G1 X119.363 Y51.938 E384.95910
G1 X58.438 Y112.863 E400.99126
G1 X58.438 Y114.129 E401.22680
G1 X120.629 Y51.938 E417.59206
G1 X121.895 Y51.938 E417.82761
G1 X58.438 Y115.395 E434.52598
G1 X58.438 Y116.661 E434.76152
G1 X123.161 Y51.938 E451.79301
G1 X124.427 Y51.938 E452.02855
G1 X58.438 Y117.927 E469.39314
G1 X58.438 Y119.193 E469.62869
G1 X125.693 Y51.938 E487.32639
G1 X126.959 Y51.938 E487.56194
G1 X58.438 Y120.459 E505.59275
G1 X58.438 Y121.724 E505.82829
G1 X128.224 Y51.938 E524.19222
G1 X129.490 Y51.938 E524.42776
G1 X58.438 Y122.990 E543.12479
G1 X58.438 Y124.256 E543.36034
G1 X130.756 Y51.938 E562.39048
G1 X132.022 Y51.938 E562.62603
G1 X58.438 Y125.522 E581.98928
G1 X58.438 Y126.788 E582.22483
G1 X133.288 Y51.938 E601.92119
G1 X134.554 Y51.938 E602.15673
G1 X58.438 Y128.054 E622.18621
G1 X58.438 Y129.320 E622.42175
G1 X135.820 Y51.938 E642.78434
G1 X137.086 Y51.938 E643.01988
G1 X58.438 Y130.586 E663.71558
G1 X58.438 Y131.851 E663.95112
G1 X138.351 Y51.938 E684.97992
G1 X139.562 Y51.938 E685.20514
G1 X139.562 Y51.994 E685.21547
G1 X58.438 Y133.117 E706.56278
G1 X58.438 Y134.383 E706.79832
G1 X139.562 Y53.260 E728.14563
G1 X139.562 Y54.525 E728.38117
G1 X58.438 Y135.649 E749.72848
G1 X58.438 Y136.915 E749.96402
G1 X139.562 Y55.791 E771.31133
G1 X139.562 Y57.057 E771.54687
G1 X58.438 Y138.181 E792.89418
G1 X58.438 Y139.447 E793.12972
G1 X139.562 Y58.323 E814.47703
G1 X139.562 Y59.589 E814.71257
G1 X58.438 Y140.713 E836.05988
G1 X58.438 Y141.978 E836.29543
G1 X139.562 Y60.855 E857.64273
G1 X139.562 Y62.121 E857.87828
G1 X58.438 Y143.244 E879.22558
G1 X58.438 Y144.510 E879.46113
G1 X139.562 Y63.387 E900.80843
G1 X139.562 Y63.938 E900.91107
G1 X140.276 Y63.938 E901.04398
G1 X58.438 Y145.776 E922.57925
G1 X58.438 Y147.042 E922.81479
G1 X141.542 Y63.938 E944.68317
G1 X141.562 Y63.938 E944.68686
G1 X141.562 Y65.184 E944.91872
G1 X58.438 Y148.308 E966.79231
G1 X58.438 Y149.574 E967.02786
G1 X141.562 Y66.450 E988.90146
G1 X141.562 Y67.716 E989.13700
G1 X58.438 Y150.840 E1011.01060
G1 X58.438 Y152.105 E1011.24614
G1 X141.562 Y68.982 E1033.11974
G1 X141.562 Y70.248 E1033.35528
G1 X58.438 Y153.371 E1055.22888
G1 X58.438 Y154.637 E1055.46443
G1 X141.562 Y71.514 E1077.33802
G1 X141.562 Y72.780 E1077.57357
G1 X58.438 Y155.903 E1099.44717
G1 X58.438 Y157.169 E1099.68271
G1 X141.562 Y74.045 E1121.55631
G1 X141.562 Y75.311 E1121.79185
G1 X58.438 Y158.435 E1143.66545
G1 X58.438 Y159.701 E1143.90099
G1 X141.562 Y76.577 E1165.77459
G1 X141.562 Y77.843 E1166.01014
G1 X58.438 Y160.967 E1187.88373
G1 X58.438 Y162.232 E1188.11928
G1 X141.562 Y79.109 E1209.99288
G1 X141.562 Y80.375 E1210.22842
G1 X58.438 Y163.498 E1232.10202
G1 X58.438 Y164.764 E1232.33756
G1 X141.562 Y81.641 E1254.21116
G1 X141.562 Y82.907 E1254.44670
G1 X58.438 Y166.030 E1276.32030
G1 X58.438 Y167.296 E1276.55585
G1 X141.562 Y84.172 E1298.42944
G1 X141.562 Y85.438 E1298.66499
G1 X58.438 Y168.562 E1320.53858
G1 X58.438 Y169.828 E1320.77413
G1 X141.562 Y86.704 E1342.64773
G1 X141.562 Y87.970 E1342.88327
G1 X58.438 Y171.094 E1364.75687
G1 X58.438 Y172.360 E1364.99241
G1 X141.562 Y89.236 E1386.86601
G1 X141.562 Y90.502 E1387.10156
G1 X58.438 Y173.625 E1408.97515
G1 X58.438 Y174.891 E1409.21070
G1 X141.562 Y91.768 E1431.08429
G1 X141.562 Y93.034 E1431.31984
G1 X58.438 Y176.157 E1453.19344
G1 X58.438 Y177.423 E1453.42898
G1 X141.562 Y94.299 E1475.30258
G1 X141.562 Y95.565 E1475.53812
G1 X58.438 Y178.689 E1497.41172
G1 X58.438 Y179.955 E1497.64726
G1 X141.562 Y96.831 E1519.52086
G1 X141.562 Y98.097 E1519.75641
G1 X58.438 Y181.221 E1541.63000
G1 X58.438 Y182.487 E1541.86555
G1 X141.562 Y99.363 E1563.73914
G1 X141.562 Y100.629 E1563.97469
G1 X58.438 Y183.752 E1585.84829
G1 X58.438 Y185.018 E1586.08383
G1 X141.562 Y101.895 E1607.95743
G1 X141.562 Y103.161 E1608.19297
G1 X58.438 Y186.284 E1630.06657
G1 X58.438 Y187.550 E1630.30211
G1 X141.562 Y104.426 E1652.17571
G1 X141.562 Y105.692 E1652.41126
G1 X58.438 Y188.816 E1674.28485
G1 X58.438 Y190.062 E1674.51668
G1 X58.458 Y190.062 E1674.52040
G1 X141.562 Y106.958 E1696.38874
G1 X141.562 Y108.224 E1696.62428
G1 X59.724 Y190.062 E1718.15951
G1 X60.438 Y190.062 E1718.29239
G1 X60.438 Y190.614 E1718.39505
G1 X141.562 Y109.490 E1739.74236
G1 X141.562 Y110.756 E1739.97790
G1 X60.438 Y191.879 E1761.32521
G1 X60.438 Y193.145 E1761.56076
G1 X141.562 Y112.022 E1782.90806
G1 X141.562 Y113.288 E1783.14361
G1 X60.438 Y194.411 E1804.49091
G1 X60.438 Y195.677 E1804.72646
G1 X141.562 Y114.553 E1826.07376
G1 X141.562 Y115.819 E1826.30931
G1 X60.438 Y196.943 E1847.65662
G1 X60.438 Y198.209 E1847.89216
G1 X141.562 Y117.085 E1869.23947
G1 X141.562 Y118.351 E1869.47501
G1 X60.438 Y199.475 E1890.82232
G1 X60.438 Y200.741 E1891.05786
G1 X141.562 Y119.617 E1912.40517
G1 X141.562 Y120.883 E1912.64071
G1 X60.438 Y202.006 E1933.98802
G1 X60.438 Y202.062 E1933.99832
G1 X61.649 Y202.062 E1934.22357
G1 X141.562 Y122.149 E1955.25233
G1 X141.562 Y123.415 E1955.48787
G1 X62.915 Y202.062 E1976.18352
G1 X64.180 Y202.062 E1976.41907
G1 X141.562 Y124.681 E1996.78161
G1 X141.562 Y125.946 E1997.01716
G1 X65.446 Y202.062 E2017.04659
G1 X66.712 Y202.062 E2017.28213
G1 X141.562 Y127.212 E2036.97845
G1 X141.562 Y128.478 E2037.21400
G1 X67.978 Y202.062 E2056.57721
G1 X69.244 Y202.062 E2056.81276
G1 X141.562 Y129.744 E2075.84286
G1 X141.562 Y131.010 E2076.07840
G1 X70.510 Y202.062 E2094.77539
G1 X71.776 Y202.062 E2095.01094
G1 X141.562 Y132.276 E2113.37482
G1 X141.562 Y133.542 E2113.61036
G1 X73.042 Y202.062 E2131.64113
G1 X74.308 Y202.062 E2131.87668
G1 X141.562 Y134.808 E2149.57434
G1 X141.562 Y136.073 E2149.80988
G1 X75.573 Y202.062 E2167.17443
G1 X76.839 Y202.062 E2167.40998
G1 X141.562 Y137.339 E2184.44142
G1 X141.562 Y138.605 E2184.67696
G1 X78.105 Y202.062 E2201.37529
G1 X79.371 Y202.062 E2201.61084
G1 X141.562 Y139.871 E2217.97606
G1 X141.562 Y141.137 E2218.21161
G1 X80.637 Y202.062 E2234.24372
G1 X81.903 Y202.062 E2234.47926
G1 X141.562 Y142.403 E2250.17826
G1 X141.562 Y143.669 E2250.41381
G1 X83.169 Y202.062 E2265.77970
G1 X84.435 Y202.062 E2266.01524
G1 X141.562 Y144.935 E2281.04802
G1 X141.562 Y146.200 E2281.28357
G1 X85.700 Y202.062 E2295.98324
G1 X86.966 Y202.062 E2296.21878
G1 X141.562 Y147.466 E2310.58534
G1 X141.562 Y148.732 E2310.82088
G1 X88.232 Y202.062 E2324.85433
G1 X89.498 Y202.062 E2325.08988
G1 X141.562 Y149.998 E2338.79022
G1 X141.562 Y151.264 E2339.02576
G1 X90.764 Y202.062 E2352.39299
G1 X92.030 Y202.062 E2352.62854
G1 X141.562 Y152.530 E2365.66266
G1 X141.562 Y153.796 E2365.89820
G1 X93.296 Y202.062 E2378.59921
G1 X94.562 Y202.062 E2378.83476
G1 X141.562 Y155.062 E2391.20265
G1 X141.562 Y156.327 E2391.43820
G1 X95.827 Y202.062 E2403.47299
G1 X97.093 Y202.062 E2403.70853
G1 X141.562 Y157.593 E2415.41021
G1 X141.562 Y158.859 E2415.64576
G1 X98.359 Y202.062 E2427.01433
G1 X99.625 Y202.062 E2427.24987
G1 X141.562 Y160.125 E2438.28533
G1 X141.562 Y161.391 E2438.52087
G1 X100.891 Y202.062 E2449.22322
G1 X102.157 Y202.062 E2449.45877
G1 X141.562 Y162.657 E2459.82800
G1 X141.562 Y163.923 E2460.06355
G1 X103.423 Y202.062 E2470.09968
G1 X104.689 Y202.062 E2470.33522
G1 X141.562 Y165.189 E2480.03824
G1 X141.562 Y166.454 E2480.27378
G1 X105.954 Y202.062 E2489.64369
G1 X107.220 Y202.062 E2489.87923
G1 X141.562 Y167.720 E2498.91603
G1 X141.562 Y168.986 E2499.15158
G1 X108.486 Y202.062 E2507.85526
G1 X109.752 Y202.062 E2508.09081
G1 X141.562 Y170.252 E2516.46139
G1 X141.562 Y171.518 E2516.69693
G1 X111.018 Y202.062 E2524.73440
G1 X112.284 Y202.062 E2524.96994
G1 X141.562 Y172.784 E2532.67430
G1 X141.562 Y174.050 E2532.90985
G1 X113.550 Y202.062 E2540.28109
G1 X114.816 Y202.062 E2540.51664
G1 X141.562 Y175.316 E2547.55478
G1 X141.562 Y176.582 E2547.79032
G1 X116.081 Y202.062 E2554.49535
G1 X117.347 Y202.062 E2554.73089
G1 X141.562 Y177.847 E2561.10281
G1 X141.562 Y179.113 E2561.33835
G1 X118.613 Y202.062 E2567.37716
G1 X119.879 Y202.062 E2567.61270
G1 X141.562 Y180.379 E2573.31840
G1 X141.562 Y181.645 E2573.55394
G1 X121.145 Y202.062 E2578.92653
G1 X122.411 Y202.062 E2579.16208
G1 X141.562 Y182.911 E2584.20155
G1 X141.562 Y184.177 E2584.43710
G1 X123.677 Y202.062 E2589.14346
G1 X124.943 Y202.062 E2589.37901
G1 X141.562 Y185.443 E2593.75226
G1 X141.562 Y186.709 E2593.98781
G1 X126.209 Y202.062 E2598.02795
G1 X127.474 Y202.062 E2598.26350
G1 X139.562 Y189.974 E2601.44424
G1 X139.562 Y191.240 E2601.67979
G1 X128.740 Y202.062 E2604.52742
G1 X130.006 Y202.062 E2604.76297
G1 X139.562 Y192.506 E2607.27749
G1 X139.562 Y193.772 E2607.51304
G1 X131.272 Y202.062 E2609.69445
G1 X132.538 Y202.062 E2609.93000
G1 X139.562 Y195.038 E2611.77830
G1 X139.562 Y196.304 E2612.01385
G1 X133.804 Y202.062 E2613.52904
G1 X135.070 Y202.062 E2613.76458
G1 X139.562 Y197.570 E2614.94667
G1 X139.562 Y198.836 E2615.18221
G1 X136.336 Y202.062 E2616.03119
G1 X137.601 Y202.062 E2616.26673
G1 X139.562 Y200.101 E2616.78260
G1 X139.562 Y201.367 E2617.01814
G1 X138.867 Y202.062 E2617.20089
G1 E2615.20089 F2400.00000
G92 E0
G1 X138.867 Y190.669 F2400.000
G1 E2.00000 F2400.00000
G1 F1200
G1 X138.867 Y190.062 E2.11294
G1 X139.474 Y190.062 E2.22587
G1 X141.562 Y187.974 E2.77516
G1 X141.562 Y189.240 E3.01071
G1 X140.740 Y190.062 E3.22689
G1 E1.22689 F2400.00000
G92 E0
G1 X58.438 Y66.026 F2400.000
G1 E2.00000 F2400.00000
G1 F1200
G1 X60.526 Y63.938 E2.54933
G1 X59.260 Y63.938 E2.78488
G1 X58.438 Y64.760 E3.00110
G1 X58.438 Y64.633 E3.02479
G1 X58.566 Y64.633 E3.04848
G1 Z0.500 F2400.000
G1 E1.04848 F2400.00000
G92 E0
G1 X57.150 Y60.729 F2400.000
G1 E2.00000 F2400.00000
G1 F1200
G1 X57.150 Y57.471 E2.60446
G1 X55.365 Y57.471 E2.93578
G1 X55.365 Y60.729 E3.54024
G1 X55.229 Y60.729 E3.56555
G1 X55.229 Y63.054 E3.99700
G1 X54.946 Y63.054 E4.04939
G1 X54.946 Y57.471 E5.08530
G1 X55.365 Y57.471 E5.16300
G1 E3.16300 F2400.00000
G92 E0
G1 X57.150 Y55.479 F2400.000
G1 E2.00000 F2400.00000
G1 F1200
G1 X57.150 Y53.271 E2.40961
G1 X55.365 Y53.271 E2.74093
G1 X55.365 Y55.479 E3.15054
G1 X54.946 Y55.479 E3.22824
G1 X54.946 Y50.946 E4.06930
G1 X55.229 Y50.946 E4.12169
G1 X55.229 Y53.271 E4.55314
G1 X55.365 Y53.271 E4.57845
G1 X142.850 Y53.271 F2400.000
G1 F1200
G1 X142.771 Y53.271 E4.59297
G1 X142.771 Y60.729 E5.97682
G1 X142.850 Y60.729 E5.99133
G1 X142.850 Y53.271 E7.37519
G1 X144.635 Y53.271 E7.70651
G1 X144.635 Y60.729 E9.09036
G1 E7.09036 F2400.00000
G92 E0
G1 X142.850 Y193.271 F2400.000
G1 E2.00000 F2400.00000
G1 F1200
G1 X142.771 Y193.271 E2.01451
G1 X142.771 Y200.729 E3.39837
