; generated by Slic3r 1.3.0 on 2022-07-12 at 11:01:59

; external perimeters extrusion width = 0.55mm (1.86mm^3/s)
; perimeters extrusion width = 0.58mm (3.93mm^3/s)
; infill extrusion width = 0.58mm (3.93mm^3/s)
; solid infill extrusion width = 0.58mm (3.93mm^3/s)
; top infill extrusion width = 0.58mm (2.95mm^3/s)
; support material extrusion width = 0.55mm (3.71mm^3/s)

M107
M190 S95 ; set bed temperature and wait for it to be reached
M104 S250 ; set temperature
G28 ; home all axes
G1 Z5 F5000 ; lift nozzle

; Filament gcode

M109 S250 ; set temperature and wait for it to be reached
G21 ; set units to millimeters
G90 ; use absolute coordinates
M82 ; use absolute distances for extrusion
G92 E0
G1 Z0.500 F2400.000
G1 E-2.00000 F2400.00000
G92 E0
G1 X84.496 Y77.092 F2400.000
G1 E2.00000 F2400.00000
G1 F1200
G1 X85.452 Y76.136 E2.25071
G1 X86.210 Y75.515 E2.43261
G1 X87.333 Y74.764 E2.68335
G1 X88.197 Y74.302 E2.86524
G1 X89.446 Y73.785 E3.11598
G1 X90.384 Y73.500 E3.29787
G1 X91.709 Y73.237 E3.54863
G1 X92.684 Y73.140 E3.73052
G1 X93.277 Y73.108 E3.84060
G1 X104.127 Y72.977 E5.85419
G1 X110.849 Y73.111 E7.10184
G1 X112.024 Y73.233 E7.32107
G1 X113.329 Y73.583 E7.57185
G1 X113.513 Y73.652 E7.60822
G1 X114.724 Y74.250 E7.85893
G1 X114.892 Y74.354 E7.89550
G1 X115.962 Y75.176 E8.14599
G1 X116.106 Y75.310 E8.18241
G1 X116.997 Y76.326 E8.43317
G1 X117.111 Y76.485 E8.46955
G1 X117.786 Y77.655 E8.72029
G1 X117.867 Y77.834 E8.75667
G1 X118.302 Y79.113 E9.00738
G1 X118.346 Y79.305 E9.04385
G1 X118.523 Y80.644 E9.29455
G1 X118.533 Y81.065 E9.37276
G1 X118.523 Y173.356 E26.49918
G1 X118.346 Y174.696 E26.74996
G1 X118.302 Y174.887 E26.78634
G1 X117.867 Y176.166 E27.03705
G1 X117.786 Y176.345 E27.07348
G1 X117.111 Y177.515 E27.32420
G1 X116.996 Y177.675 E27.36085
G1 X116.106 Y178.690 E27.61130
G1 X115.967 Y178.820 E27.64667
G1 X114.891 Y179.647 E27.89844
G1 X114.721 Y179.752 E27.93555
G1 X113.513 Y180.348 E28.18548
G1 X113.329 Y180.417 E28.22186
G1 X112.024 Y180.767 E28.47266
G1 X110.849 Y180.889 E28.69188
G1 X104.127 Y181.023 E29.93954
G1 X93.277 Y180.892 E31.95313
G1 X92.684 Y180.860 E32.06321
G1 X91.709 Y180.763 E32.24517
G1 X90.384 Y180.500 E32.49585
G1 X89.446 Y180.215 E32.67774
G1 X88.197 Y179.698 E32.92848
G1 X87.333 Y179.236 E33.11037
G1 X86.209 Y178.485 E33.36113
G1 X85.452 Y177.864 E33.54302
G1 X84.496 Y176.908 E33.79375
G1 X83.874 Y176.150 E33.97574
G1 X83.124 Y175.027 E34.22638
G1 X82.662 Y174.163 E34.40827
G1 X82.145 Y172.914 E34.65903
G1 X81.860 Y171.976 E34.84096
G1 X81.597 Y170.651 E35.09166
G1 X81.500 Y169.675 E35.27367
G1 X81.467 Y169.000 E35.39907
G1 X81.467 Y85.000 E50.98700
G1 X81.501 Y84.324 E51.11252
G1 X81.597 Y83.349 E51.29447
G1 X81.860 Y82.024 E51.54516
G1 X82.145 Y81.086 E51.72710
G1 X82.662 Y79.837 E51.97780
G1 X83.124 Y78.973 E52.15970
G1 X83.875 Y77.849 E52.41043
G1 X84.449 Y77.150 E52.57843
G1 E50.57843 F2400.00000
G92 E0
G1 X106.673 Y171.099 F2400.000
G1 E2.00000 F2400.00000
G1 F1200
G1 X105.603 Y171.719 E2.22956
G1 X105.603 Y170.481 E2.45925
G1 X106.609 Y171.062 E2.67476
G1 E0.67476 F2400.00000
G92 E0
G1 X102.155 Y160.607 F2400.000
G1 E2.00000 F2400.00000
G1 F1200
G1 X102.155 Y161.107 E2.09279
G1 X99.005 Y161.107 E2.67733
G1 X99.005 Y165.857 E3.55879
G1 X97.553 Y165.857 E3.82826
G1 X97.553 Y88.143 E18.24980
G1 X99.005 Y88.143 E18.51927
G1 X99.005 Y101.893 E21.07087
G1 X102.155 Y101.893 E21.65541
G1 X102.155 Y102.393 E21.74820
G1 X102.655 Y102.393 E21.84098
G1 X102.655 Y106.607 E22.62309
G1 X102.155 Y106.607 E22.71588
G1 X102.155 Y107.107 E22.80866
G1 X99.005 Y107.107 E23.39321
G1 X99.005 Y119.893 E25.76580
G1 X102.155 Y119.893 E26.35035
G1 X102.155 Y120.393 E26.44313
G1 X102.920 Y120.393 E26.58504
G1 X102.926 Y124.622 E27.36991
G1 X102.155 Y124.636 E27.51307
G1 X102.155 Y125.107 E27.60059
G1 X99.005 Y125.107 E28.18514
G1 X99.005 Y137.893 E30.55773
G1 X102.155 Y137.893 E31.14228
G1 X102.155 Y138.393 E31.23507
G1 X102.817 Y138.393 E31.35801
G1 X102.817 Y142.607 E32.14011
G1 X102.155 Y142.607 E32.26305
G1 X102.155 Y143.107 E32.35584
G1 X99.005 Y143.107 E32.94039
G1 X99.005 Y155.893 E35.31298
G1 X102.155 Y155.893 E35.89753
G1 X102.155 Y156.393 E35.99031
G1 X102.655 Y156.393 E36.08310
G1 X102.655 Y160.607 E36.86520
G1 X102.230 Y160.607 E36.94407
G1 E34.94407 F2400.00000
G92 E0
G1 X105.603 Y83.519 F2400.000
G1 E2.00000 F2400.00000
G1 F1200
G1 X105.603 Y82.281 E2.22969
G1 X106.675 Y82.900 E2.45937
G1 X105.668 Y83.481 E2.67514
G1 X104.710 Y82.500 F2400.000
G1 F1200
G1 X93.335 Y82.500 E4.78593
G1 X92.872 Y82.546 E4.87238
G1 X92.402 Y82.688 E4.96341
G1 X91.981 Y82.914 E5.05218
G1 X91.591 Y83.229 E5.14519
G1 X91.279 Y83.610 E5.23647
G1 X91.054 Y84.032 E5.32524
G1 X90.906 Y84.510 E5.41826
G1 X90.858 Y85.000 E5.50954
G1 X90.906 Y85.488 E5.60057
G1 X91.048 Y85.958 E5.69160
G1 X91.279 Y86.390 E5.78264
G1 X91.591 Y86.769 E5.87367
G1 X91.970 Y87.081 E5.96471
G1 X92.402 Y87.312 E6.05574
G1 X92.872 Y87.454 E6.14677
G1 X93.335 Y87.500 E6.23322
G1 X96.660 Y87.500 E6.85017
G1 X96.660 Y87.250 E6.89656
G1 X99.898 Y87.250 E7.49734
G1 X99.898 Y101.000 E10.04894
G1 X103.048 Y101.000 E10.63349
G1 X103.048 Y101.500 E10.72627
G1 X103.548 Y101.500 E10.81906
G1 X103.548 Y107.500 E11.93248
G1 X103.048 Y107.500 E12.02527
G1 X103.048 Y108.000 E12.11805
G1 X99.898 Y108.000 E12.70260
G1 X99.898 Y119.000 E14.74387
G1 X103.048 Y119.000 E15.32842
G1 X103.048 Y119.500 E15.42121
G1 X103.811 Y119.500 E15.56285
G1 X103.820 Y125.499 E16.67617
G1 X103.048 Y125.513 E16.81958
G1 X103.048 Y126.000 E16.90998
G1 X99.898 Y126.000 E17.49452
G1 X99.898 Y137.000 E19.53580
G1 X103.048 Y137.000 E20.12035
G1 X103.048 Y137.500 E20.21313
G1 X103.710 Y137.500 E20.33607
G1 X103.710 Y143.500 E21.44950
G1 X103.048 Y143.500 E21.57244
G1 X103.048 Y144.000 E21.66522
G1 X99.898 Y144.000 E22.24977
G1 X99.898 Y155.000 E24.29105
G1 X103.048 Y155.000 E24.87559
G1 X103.048 Y155.500 E24.96838
G1 X103.548 Y155.500 E25.06116
G1 X103.548 Y161.500 E26.17459
G1 X103.048 Y161.500 E26.26737
G1 X103.048 Y162.000 E26.36016
G1 X99.898 Y162.000 E26.94470
G1 X99.898 Y166.750 E27.82617
G1 X96.660 Y166.750 E28.42695
G1 X96.660 Y166.500 E28.47334
G1 X93.335 Y166.500 E29.09028
G1 X92.872 Y166.546 E29.17674
G1 X92.402 Y166.688 E29.26777
G1 X91.981 Y166.914 E29.35653
G1 X91.591 Y167.229 E29.44955
G1 X91.279 Y167.610 E29.54083
G1 X91.048 Y168.042 E29.63187
G1 X90.906 Y168.512 E29.72290
G1 X90.858 Y169.000 E29.81393
G1 X90.906 Y169.488 E29.90497
G1 X91.048 Y169.958 E29.99600
G1 X91.279 Y170.390 E30.08703
G1 X91.583 Y170.760 E30.17580
G1 X91.969 Y171.080 E30.26882
G1 X92.402 Y171.312 E30.36010
G1 X92.872 Y171.454 E30.45113
G1 X93.335 Y171.500 E30.53758
G1 X104.710 Y171.500 E32.64837
G1 X104.710 Y168.935 E33.12437
G1 X108.460 Y171.100 E33.92782
G1 X108.405 Y171.131 E33.93949
G1 X110.871 Y172.555 E34.46783
G1 X110.970 Y172.626 E34.49051
G1 X111.089 Y172.781 E34.52677
G1 X111.139 Y172.967 E34.56255
G1 X111.135 Y173.065 E34.58065
G1 X111.073 Y173.249 E34.61668
G1 X110.945 Y173.395 E34.65271
G1 X110.771 Y173.481 E34.68874
G1 X110.675 Y173.497 E34.70684
G1 X110.482 Y173.471 E34.74287
G1 X107.406 Y171.709 E35.40082
G1 X104.303 Y173.500 E36.06562
G1 X93.385 Y173.500 E38.09177
G1 X92.483 Y173.411 E38.25997
G1 X91.639 Y173.155 E38.42358
G1 X90.861 Y172.740 E38.58720
G1 X90.180 Y172.180 E38.75081
G1 X89.637 Y171.519 E38.90962
G1 X89.204 Y170.720 E39.07819
G1 X88.949 Y169.877 E39.24156
G1 X88.862 Y169.000 E39.40517
G1 X88.949 Y168.123 E39.56878
G1 X89.205 Y167.279 E39.73240
G1 X89.620 Y166.501 E39.89601
G1 X90.180 Y165.820 E40.05963
G1 X90.861 Y165.260 E40.22324
G1 X91.639 Y164.845 E40.38685
G1 X92.483 Y164.589 E40.55047
G1 X93.385 Y164.500 E40.71866
G1 X96.660 Y164.500 E41.32649
G1 X96.660 Y89.500 E55.24428
G1 X93.385 Y89.500 E55.85211
G1 X92.483 Y89.411 E56.02030
G1 X91.639 Y89.155 E56.18391
G1 X90.861 Y88.740 E56.34753
G1 X90.180 Y88.180 E56.51114
G1 X89.637 Y87.519 E56.66995
G1 X89.204 Y86.720 E56.83852
G1 X88.949 Y85.877 E57.00189
G1 X88.862 Y85.000 E57.16550
G1 X88.949 Y84.123 E57.32912
G1 X89.205 Y83.279 E57.49273
G1 X89.620 Y82.501 E57.65634
G1 X90.180 Y81.820 E57.81996
G1 X90.861 Y81.260 E57.98357
G1 X91.639 Y80.845 E58.14719
G1 X92.483 Y80.589 E58.31080
G1 X93.385 Y80.500 E58.47899
G1 X104.303 Y80.500 E60.50515
G1 X107.406 Y82.291 E61.16995
G1 X110.482 Y80.529 E61.82790
G1 X110.675 Y80.503 E61.86393
G1 X110.862 Y80.554 E61.89996
G1 X111.016 Y80.672 E61.93599
G1 X111.113 Y80.840 E61.97201
G1 X111.138 Y81.034 E62.00828
G1 X111.088 Y81.220 E62.04406
G1 X110.970 Y81.374 E62.08009
G1 X110.871 Y81.445 E62.10277
G1 X108.406 Y82.869 E62.63100
G1 X108.460 Y82.900 E62.64266
G1 X104.710 Y85.065 E63.44621
G1 X104.710 Y82.575 E63.90829
G1 X104.476 Y82.058 F2400.000
G1 X105.142 Y81.500 F2400.000
G1 F1200
G1 X93.314 Y81.506 E66.36724
G1 X92.677 Y81.569 E66.50011
G1 X92.021 Y81.768 E66.64268
G1 X91.417 Y82.092 E66.78524
G1 X90.886 Y82.526 E66.92780
G1 X90.451 Y83.056 E67.07038
G1 X90.128 Y83.661 E67.21294
G1 X89.928 Y84.317 E67.35550
G1 X89.861 Y85.000 E67.49807
G1 X89.929 Y85.683 E67.64065
G1 X90.126 Y86.335 E67.78240
G1 X90.465 Y86.962 E67.93055
G1 X90.886 Y87.474 E68.06831
G1 X91.463 Y87.936 E68.22189
G1 X92.021 Y88.232 E68.35331
G1 X92.677 Y88.431 E68.49588
G1 X93.434 Y88.500 E68.65373
G1 X97.106 Y88.500 E69.41719
G1 X98.279 Y88.589 F2400.000
G1 F1200
G1 X98.279 Y102.339 E70.70943
G1 X98.793 Y102.885 F2400.000
G1 F1200
G1 X98.098 Y103.579 E70.91874
G1 X98.098 Y105.029 E71.22772
G1 X100.689 Y102.438 E72.00852
G1 X101.609 Y102.438 E72.20467
G1 X101.609 Y102.938 E72.31123
G1 X101.639 Y102.938 E72.31750
G1 X98.462 Y106.115 E73.27509
G1 X99.104 Y106.115 E73.41201
G1 X99.104 Y106.562 E73.50713
G1 X99.465 Y106.562 E73.58407
G1 X102.109 Y103.917 E74.38104
G1 X102.109 Y105.367 E74.69002
G1 X101.415 Y106.062 E74.89933
G1 X101.609 Y105.867 F2400.000
G1 F1200
G1 X100.915 Y106.562 E75.10860
G1 E73.10860 F2400.00000
G92 E0
G1 X98.279 Y106.661 F2400.000
G1 E2.00000 F2400.00000
G1 F1200
G1 X98.279 Y120.339 E3.28548
G1 X98.833 Y120.885 F2400.000
G1 F1200
G1 X98.098 Y121.619 E3.51675
G1 X98.098 Y123.134 E3.85410
G1 X100.794 Y120.438 E4.70302
G1 X101.609 Y120.438 E4.88462
G1 X101.609 Y120.938 E4.99596
G1 X101.809 Y120.938 E5.04038
G1 X98.632 Y124.115 E6.04098
G1 X99.104 Y124.115 E6.14618
G1 X99.104 Y124.562 E6.24557
G1 X99.700 Y124.562 E6.37834
G1 X102.377 Y121.885 E7.22130
G1 X102.379 Y123.398 E7.55813
G1 X101.685 Y124.092 E7.77685
G1 E5.77685 F2400.00000
G92 E0
G1 X98.279 Y124.661 F2400.000
G1 E2.00000 F2400.00000
G1 F1200
G1 X98.279 Y138.339 E3.28548
G1 X98.793 Y138.885 F2400.000
G1 F1200
G1 X98.098 Y139.579 E3.50066
G1 X98.098 Y141.070 E3.82720
G1 X100.730 Y138.438 E4.64246
G1 X101.609 Y138.438 E4.83521
G1 X101.609 Y138.938 E4.94475
G1 X101.720 Y138.938 E4.96900
G1 X98.543 Y142.115 E5.95342
G1 X99.104 Y142.115 E6.07638
G1 X99.104 Y142.562 E6.17416
G1 X99.587 Y142.562 E6.27996
G1 X102.272 Y139.877 E7.11185
G1 X102.272 Y141.367 E7.43838
G1 X101.577 Y142.062 E7.65356
G1 E5.65356 F2400.00000
G92 E0
G1 X98.279 Y142.661 F2400.000
G1 E2.00000 F2400.00000
G1 F1200
G1 X98.279 Y156.339 E3.28548
G1 X98.793 Y156.885 F2400.000
G1 F1200
G1 X98.098 Y157.579 E3.49480
G1 X98.098 Y159.029 E3.80378
G1 X100.689 Y156.438 E4.58457
G1 X101.609 Y156.438 E4.78073
G1 X101.609 Y156.938 E4.88728
G1 X101.639 Y156.938 E4.89356
G1 X98.462 Y160.115 E5.85114
G1 X99.104 Y160.115 E5.98806
G1 X99.104 Y160.562 E6.08319
G1 X99.465 Y160.562 E6.16012
G1 X102.109 Y157.917 E6.95709
G1 X102.109 Y159.367 E7.26607
G1 X101.415 Y160.062 E7.47538
G1 X101.609 Y159.867 F2400.000
G1 F1200
G1 X100.915 Y160.562 E7.68465
G1 E5.68465 F2400.00000
G92 E0
G1 X98.279 Y160.661 F2400.000
G1 E2.00000 F2400.00000
G1 F1200
G1 X98.279 Y165.411 E2.44641
G1 X97.106 Y165.500 F2400.000
G1 F1200
G1 X93.434 Y165.500 E3.20987
G1 X92.677 Y165.569 E3.36772
G1 X91.973 Y165.792 E3.52130
G1 X91.417 Y166.092 E3.65270
G1 X90.886 Y166.526 E3.79526
G1 X90.451 Y167.056 E3.93784
G1 X90.128 Y167.661 E4.08041
G1 X89.929 Y168.317 E4.22299
G1 X89.861 Y169.000 E4.36556
G1 X89.929 Y169.683 E4.50813
G1 X90.126 Y170.335 E4.64989
G1 X90.465 Y170.962 E4.79803
G1 X90.887 Y171.473 E4.93578
G1 X91.416 Y171.909 E5.07834
G1 X92.021 Y172.232 E5.22092
G1 X92.677 Y172.431 E5.36349
G1 X93.314 Y172.494 E5.49635
G1 X105.142 Y172.500 E7.95530
G1 Z0.500 F2400.000
G1 Z0.900 F2400.000
G1 E5.95530 F2400.00000
G92 E0
G1 X104.963 Y82.247 F2400.000
G1 E2.00000 F2400.00000
G1 F1200
G1 X93.323 Y82.247 E2.95016
G1 X92.822 Y82.297 E2.99124
G1 X92.305 Y82.454 E3.03534
G1 X91.829 Y82.708 E3.07945
G1 X91.411 Y83.051 E3.12355
G1 X91.068 Y83.469 E3.16766
G1 X90.831 Y83.914 E3.20884
G1 X90.657 Y84.457 E3.25539
G1 X90.604 Y85.000 E3.29994
G1 X90.657 Y85.538 E3.34404
G1 X90.814 Y86.055 E3.38815
G1 X91.068 Y86.531 E3.43226
G1 X91.411 Y86.949 E3.47636
G1 X91.829 Y87.292 E3.52047
G1 X92.305 Y87.546 E3.56457
G1 X92.822 Y87.703 E3.60868
G1 X93.323 Y87.753 E3.64975
G1 X96.913 Y87.753 E3.94277
G1 X96.913 Y87.503 E3.96318
G1 X99.645 Y87.503 E4.18624
G1 X99.645 Y101.253 E5.30869
G1 X102.795 Y101.253 E5.56583
G1 X102.795 Y101.753 E5.60665
G1 X103.295 Y101.753 E5.64746
G1 X103.295 Y107.247 E6.09603
G1 X102.795 Y107.247 E6.13685
G1 X102.795 Y107.747 E6.17767
G1 X99.645 Y107.747 E6.43481
G1 X99.645 Y119.253 E7.37399
G1 X102.795 Y119.253 E7.63114
G1 X102.795 Y119.753 E7.67195
G1 X103.559 Y119.753 E7.73430
G1 X103.567 Y125.251 E8.18317
G1 X102.795 Y125.265 E8.24623
G1 X102.795 Y125.747 E8.28564
G1 X99.645 Y125.747 E8.54278
G1 X99.645 Y137.253 E9.48197
G1 X102.795 Y137.253 E9.73911
G1 X102.795 Y137.753 E9.77993
G1 X103.458 Y137.753 E9.83401
G1 X103.458 Y143.247 E10.28258
G1 X102.795 Y143.247 E10.33666
G1 X102.795 Y143.747 E10.37748
G1 X99.645 Y143.747 E10.63462
G1 X99.645 Y155.253 E11.57380
G1 X102.795 Y155.253 E11.83095
G1 X102.795 Y155.753 E11.87176
G1 X103.295 Y155.753 E11.91258
G1 X103.295 Y161.247 E12.36115
G1 X102.795 Y161.247 E12.40196
G1 X102.795 Y161.747 E12.44278
G1 X99.645 Y161.747 E12.69992
G1 X99.645 Y166.497 E13.08768
G1 X96.913 Y166.497 E13.31074
G1 X96.913 Y166.247 E13.33115
G1 X93.323 Y166.247 E13.62417
G1 X92.822 Y166.297 E13.66524
G1 X92.305 Y166.454 E13.70934
G1 X91.829 Y166.708 E13.75345
G1 X91.411 Y167.051 E13.79756
G1 X91.091 Y167.441 E13.83874
G1 X90.815 Y167.940 E13.88529
G1 X90.657 Y168.462 E13.92983
G1 X90.604 Y169.000 E13.97394
G1 X90.657 Y169.538 E14.01805
G1 X90.814 Y170.055 E14.06215
G1 X91.068 Y170.531 E14.10626
G1 X91.411 Y170.949 E14.15036
G1 X91.829 Y171.292 E14.19447
G1 X92.305 Y171.546 E14.23858
G1 X92.822 Y171.703 E14.28268
G1 X93.323 Y171.753 E14.32376
G1 X104.963 Y171.753 E15.27392
G1 X104.963 Y169.372 E15.46822
G1 X107.956 Y171.101 E15.75039
G1 X107.902 Y171.132 E15.75552
G1 X110.734 Y172.767 E16.02248
G1 X110.803 Y172.817 E16.02942
G1 X110.861 Y172.892 E16.03718
G1 X110.884 Y173.032 E16.04874
G1 X110.825 Y173.161 E16.06029
G1 X110.750 Y173.219 E16.06806
G1 X110.610 Y173.242 E16.07962
G1 X110.486 Y173.196 E16.09041
G1 X107.406 Y171.417 E16.38080
G1 X104.235 Y173.247 E16.67962
G1 X93.397 Y173.247 E17.56439
G1 X92.532 Y173.162 E17.63534
G1 X91.736 Y172.921 E17.70325
G1 X91.002 Y172.529 E17.77117
G1 X90.359 Y172.001 E17.83908
G1 X89.831 Y171.358 E17.90699
G1 X89.439 Y170.624 E17.97491
G1 X89.198 Y169.828 E18.04282
G1 X89.116 Y169.000 E18.11073
G1 X89.198 Y168.172 E18.17865
G1 X89.439 Y167.376 E18.24656
G1 X89.831 Y166.642 E18.31447
G1 X90.359 Y165.999 E18.38239
G1 X91.002 Y165.471 E18.45030
G1 X91.736 Y165.079 E18.51821
G1 X92.532 Y164.838 E18.58613
G1 X93.397 Y164.753 E18.65707
G1 X96.913 Y164.753 E18.94406
G1 X96.913 Y89.247 E25.10773
G1 X93.397 Y89.247 E25.39472
G1 X92.532 Y89.162 E25.46566
G1 X91.736 Y88.921 E25.53357
G1 X91.002 Y88.529 E25.60149
G1 X90.359 Y88.001 E25.66940
G1 X89.831 Y87.358 E25.73731
G1 X89.439 Y86.624 E25.80523
G1 X89.198 Y85.828 E25.87314
G1 X89.116 Y85.000 E25.94106
G1 X89.198 Y84.172 E26.00897
G1 X89.439 Y83.376 E26.07688
G1 X89.831 Y82.642 E26.14480
G1 X90.359 Y81.999 E26.21271
G1 X91.002 Y81.471 E26.28062
G1 X91.736 Y81.079 E26.34854
G1 X92.532 Y80.838 E26.41645
G1 X93.397 Y80.753 E26.48739
G1 X104.235 Y80.753 E27.37217
G1 X107.406 Y82.583 E27.67099
